X: 4895
T: Braigh Loch Iall
R: waltz
M: 3/4
K: Adorian
V:1
e|A>GB A2A|a>ge d<eg|G<BA G2B|d>eg e<dB|
V:2
z|C>B,D C2C|c2G G2B|B,<DC B,2D|B2B c2G|
V:1
B<AG A2A|a>ge d<eg|B<GB d>eg|B2A A2:|
V:2
G,<A,B, C2C|c2G G2B|D<B,D B2B|D2C C2:|
V:1
g|a>ea a2e|a>ge d<eg|G<BA G2B|d>eg e<dB|
V:2
z|c2c c2c|c2G G2B|B,<DC B,2D|B2B c>BG|
V:1
B<AG A2A|a>ge d<eg|B<GB d>eg|B2A A2:|
V:2
G,<A,B, C2C|c2G G2B|D<B,D B2B|D2C C2:|

